X:1
T:Glenlivet
S:Kerr's Violin I
Z: 2006 John Chambers <jc:trillian.mit.edu>
N: handwritten MS by Barbara McOwen (Dec 1980)
M:C|
L:1/8
K:Am
e \
| "Am"A2ae cBAc | "G"BAGB gdBG \
| "Am"A2ae cBAc | "G"BGdB "Am"cAA :|
|: B \
| "Am"ABcd ecBA | "G"GdBd gdBG \
|1 "Am"ABcd ecBA | "G"BGdB "Am"cAA \
:|2 "Am"Ac"G"Bd "F"ce"G"df | "E7"edcB "Am"cAA |]
